X:1
T:Title
%%score ( 1 2 ) { 3 | 4 }
L:1/8
Q:1/4=97
M:4/4
K:Ab
V:1 treble nm="Grand Piano, Soprano"
V:2 treble 
V:3 bass nm="Choir Pad, Bass"
V:4 bass 
V:1
 [Ec]>[Ec] [Ec]>[DB] [CA]2 [CE]>[CE] | [DF]>[EG] [FA]>[DF] [CE]4 | %2
w: By~James~David~Vaughan * * * * * *||
 [EA]>[EA] [EA]>[EB] [Ac]2 [Ac]2 | [Gd]>[Ac] [EB]>A [GB]4 | [Ec]>[Ec] [Ec]>[DB] [CA]2 [CE]>[CE] | %5
w: |||
 [DF]>[EG] [FA]>[DF] [CE]4 | [CA]>[CA] [CA]>[DB] [Ec]2 [EA]2 | [EB]>[GB] [Ac]>[EB] [EA]4 | %8
w: |||
 [Ae]>[Ae] [Ae]>[Af] [Ae]4 | [Ec]>[EB] [CA]>[DF] [CE]4 | [CA]>[CA] [CA]>[DB] [Ec]4 | %11
w: |||
 [Ae]>[Ac] [GB]>A [GB]4 | [Ae]>[Ae] [Ae]>[Af] [Ae]4 | [Ec]>[EB] [CA]>[DF] [CE]4 | z4 c2 z2 | %15
w: ||||
 [EB]>[GB] [Ac]>[EB] [EA]4- | [EA]4 z4 |] %17
w: ||
V:2
 x8 | x8 | x8 | x8 | x8 | x8 | x8 | x8 | x8 | x8 | x8 | x8 | x8 | x8 | %14
 [CA]>[CA] [CA]>[DB] E2- [EA]2 | x8 | x8 |] %17
V:3
 A,>A, A,>E, E,2 A,>A, | A,>A, A,>A, A,4 | C>C C>D E2 E2 | E>E E>=D E4 | A,>A, A,>E, A,2 A,>A, | %5
 A,>A, A,>A, A,4 | A,>A, A,>A, A,2[K:treble] C2 | D>D E>D C4 | C>C C>D C4 | A,>G, A,>A, A,4 | %10
 A,>A, A,>A, A,4 | B,>[K:treble]E E>=D E4 | C>C C>D C4 | A,>G, A,>A, A,4 | %14
 A,>A, A,>A, A,2[K:treble] C2 | D>D E>D C4- | C4 z4 |] %17
V:4
 A,,>A,, A,,>A,, A,,2 A,,>A,, | D,>D, D,>D, A,,4 | A,>A, A,>A, A,2 A,2 | B,>A, G,>G, E,4 | %4
 A,,>A,, A,,>A,, A,,2 A,,>A,, | D,>D, D,>D, A,,4 | z4 z2 A,2 | E,>E, E,>E, A,,4 | A,>A, A,>A, A,4 | %9
 z z/ E,/ F,>D, A,,4 | z8 | G,>A, E,>F, E,4 | A,>A, A,>A, A,4 | z z/ E,/ F,>D, A,,4 | z8 | %15
 E,>E, E,>E, A,,4- | A,,4 z4 |] %17

